X: 10988
T: Drunken Landlady, The
R: reel
M: 4/4
K: Edorian
FA|BE~E2 BAFA|BE~E2 BAFG|ABAF DEFD|FAAd BAFA|
BE~E2 BAFA|B2cA BAFG|A2Bc defe|dBAF E2:|
FA|Beed e2de|f2df e2dB|ABAF DEFD|FAAd BAFA|
Beed e2de|f2df e2dB|~A3B defe|dBAF E2:|

